X:3151
T:Pretty Sarah
F:http://www.vwml.org/record/CJS2/10/3151
S:Sung by Mrs J.C.Campbell, c20-24 Mar 1915, Asheville, NC. Learned from Mrs Moore
Z:Transcribed by Steve Wise, May 2016
M:4/4
L:1/4
K:C
G|c2 G B | c2 G B |  c2 G B | c3 c |
w:There was a young doc-tor from Lon-don he came He
 e2 e e | g2 g e | d2 g>f | d3 d | e2 e>f |
w:cour-ted a dam-sel called Sa-rah by name Her wealth it was
 g2 g f | d2 g>f | d3 G | c2 (e/2d/2) (c/2A/2) | G2 (A/2G/2) (E/2G/2) |
w:more than the King could pos-sess Her beau-ty*  was*  more than* his* 
 c2 c>d | c3 |]
w:wealth at the best

